X:1
T:Locker's -- Hornpipe
Z:Bob Puckette <bpuckette:msn.com> 2003-3-10
R:hornpipe
B:Cole's 1000 Fiddle Tunes
M:C|
L:1/8
K:Bb
uF2|B>AB>c B>cd>e|f>=ef>g f>dB>d|\
f>=ef>g f>dc>B|A>cB>G F>ed>c|
|B>AB>c B>cd>e|f>=ef>g f>ag>f|=e>fg>a b>ge>g|f>ca>g f2:|
|:(ucB)|A>f=e>f d>fB>f|\
A>f=e>f d>fB>f|g>fe>d e>dc>B|A>cB>G F2 (dc)|
B>fd>B A>ec>A|B>fd>B A>ec>A|\
B>ba>g (3.f.g.f (3.e.d.c|B2b2B2:|
